X: 21310
T: Kenmare Golf Disaster, The
R: polka
M: 2/4
K: Dmajor
|:FB AF|DB, B,C/B,/|A,B, D/C/D/E/|FE ED/E/|
FB AF|DB, B,C/B,/|A,B, D/C/D/E/|1 FD DD/E/:|2 FD D2||
EF/E/ DE|FA AB/c/|dB AF|BE ED|
EF/E/ DE|FA AB/c/|dB AG|FD D2|
EF/E/ DE|FA AB/c/|dB AF|BE ED/E/|
FB AF|DB, B,C/B,/|A,B, D/C/D/E/|FD DD/E/||

